svg/fluentui-system-icons/ic_fluent_question_circle_20_regular.svg

<svg width="20" height="20" viewBox="0 0 20 20" fill="none" xmlns="http://www.w3.org/2000/svg">
<path d="M10 2C14.4183 2 18 5.58172 18 10C18 14.4183 14.4183 18 10 18C5.58172 18 2 14.4183 2 10C2 5.58172 5.58172 2 10 2ZM10 3C6.13401 3 3 6.13401 3 10C3 13.866 6.13401 17 10 17C13.866 17 17 13.866 17 10C17 6.13401 13.866 3 10 3ZM10 13.5C10.4142 13.5 10.75 13.8358 10.75 14.25C10.75 14.6642 10.4142 15 10 15C9.58579 15 9.25 14.6642 9.25 14.25C9.25 13.8358 9.58579 13.5 10 13.5ZM10 5.5C11.3807 5.5 12.5 6.61929 12.5 8C12.5 8.72959 12.1848 9.40774 11.6513 9.8771L11.4967 10.0024L11.2782 10.1655L11.1906 10.2372C11.1348 10.2851 11.0835 10.3337 11.0346 10.3859C10.6963 10.7464 10.5 11.2422 10.5 12C10.5 12.2761 10.2761 12.5 10 12.5C9.72386 12.5 9.5 12.2761 9.5 12C9.5 10.988 9.79312 10.2475 10.3054 9.70162C10.4165 9.5832 10.532 9.47988 10.6609 9.37874L10.9076 9.19439L11.0256 9.09468C11.325 8.81435 11.5 8.42206 11.5 8C11.5 7.17157 10.8284 6.5 10 6.5C9.17157 6.5 8.5 7.17157 8.5 8C8.5 8.27614 8.27614 8.5 8 8.5C7.72386 8.5 7.5 8.27614 7.5 8C7.5 6.61929 8.61929 5.5 10 5.5Z" fill="#212121"/>
</svg>

<svg xmlns="http://www.w3.org/2000/svg" width="20" height="20"><path d="M10 2a8 8 0 1 1 0 16 8 8 0 0 1 0-16Zm0 1a7 7 0 1 0 0 14 7 7 0 0 0 0-14Zm0 10.5a.75.75 0 1 1 0 1.5.75.75 0 0 1 0-1.5Zm0-8a2.5 2.5 0 0 1 1.651 4.377l-.154.125-.219.163-.087.072a1.968 1.968 0 0 0-.156.149c-.339.36-.535.856-.535 1.614a.5.5 0 0 1-1 0c0-1.012.293-1.752.805-2.298a3.11 3.11 0 0 1 .356-.323l.247-.185.118-.1A1.5 1.5 0 1 0 8.5 8a.5.5 0 0 1-1 .001A2.5 2.5 0 0 1 10 5.5Z"/></svg>
